images/twitter.svg

<svg width="42" height="42" viewBox="0 0 42 42" fill="none" xmlns="http://www.w3.org/2000/svg">
<rect width="42" height="42" fill="#F9EFCF"/>
<path d="M34.9913 11.704C36.56 10.7661 37.7338 9.2894 38.2935 7.54948C36.8194 8.42417 35.2066 9.0403 33.5248 9.37123C32.3905 8.17135 30.893 7.37784 29.2632 7.11304C27.6334 6.84823 25.9618 7.12683 24.506 7.90588C23.0502 8.68493 21.891 9.92119 21.2071 11.4241C20.5233 12.927 20.3527 14.6131 20.7218 16.2225C17.7361 16.0726 14.8152 15.2965 12.1489 13.9447C9.48256 12.5928 7.13029 10.6953 5.24478 8.37548C4.28589 10.0294 3.99247 11.9863 4.42411 13.8487C4.85575 15.7112 5.98009 17.3395 7.56878 18.403C6.37652 18.3647 5.2107 18.0418 4.16853 17.4615V17.556C4.16886 19.2902 4.76901 20.9709 5.86719 22.3131C6.96537 23.6553 8.49397 24.5763 10.1938 24.92C9.08789 25.2209 7.92789 25.2652 6.80228 25.0495C7.28305 26.541 8.21751 27.8453 9.47524 28.7802C10.733 29.7151 12.2512 30.234 13.818 30.2645C11.1577 32.3525 7.87236 33.4848 4.49053 33.4792C3.89028 33.4792 3.29178 33.4442 2.69678 33.376C6.131 35.5827 10.1279 36.754 14.21 36.75C17.0216 36.7693 19.809 36.2297 22.4102 35.1626C25.0115 34.0956 27.3748 32.5222 29.3628 30.534C31.3508 28.5458 32.924 26.1824 33.9909 23.581C35.0577 20.9797 35.5971 18.1923 35.5775 15.3807C35.5775 15.0552 35.5705 14.7315 35.5548 14.4095C37.0256 13.3466 38.295 12.0298 39.3033 10.521C37.933 11.1283 36.4796 11.5271 34.9913 11.704Z" fill="#F38281"/>
</svg>

<svg width="42" height="42" fill="none" xmlns="http://www.w3.org/2000/svg"><path fill="#F9EFCF" d="M0 0h42v42H0z"/><path d="M34.991 11.704a7.525 7.525 0 0 0 3.303-4.155 15.032 15.032 0 0 1-4.77 1.822 7.525 7.525 0 0 0-12.802 6.851A21.323 21.323 0 0 1 5.245 8.375a7.525 7.525 0 0 0 2.324 10.028 7.483 7.483 0 0 1-3.4-.941v.094a7.515 7.515 0 0 0 6.025 7.364 7.524 7.524 0 0 1-3.392.13 7.525 7.525 0 0 0 7.016 5.215 15.067 15.067 0 0 1-9.327 3.214c-.6 0-1.2-.035-1.794-.103A21.26 21.26 0 0 0 14.21 36.75a21.222 21.222 0 0 0 21.367-21.37c0-.325-.006-.649-.022-.97a15.256 15.256 0 0 0 3.748-3.889 15.017 15.017 0 0 1-4.312 1.183Z" fill="#F38281"/></svg>
